Newaita-dark/actions/22/office-chart-line.svg

<svg height="22" viewBox="0 0 22 22" width="22" xmlns="http://www.w3.org/2000/svg"><g fill="#e0e0e0"><path d="m3.636719 19.726562v-17.28125c0-.25-.203125-.453124-.453125-.453124s-.453125.203124-.453125.453124v17.28125c0 .253907.203125.457032.453125.457032s.453125-.203125.453125-.457032zm0 0"/><path d="m2.273438 19.273438h17.28125c.253906 0 .457031-.179688.457031-.402344v-.105469c0-.222656-.203125-.402344-.457031-.402344h-17.28125c-.25 0-.453126.179688-.453126.402344v.105469c0 .222656.203126.402344.453126.402344zm0 0"/><path d="m18.175781 3.804688c-.238281.007812-.460937.105468-.625.273437l-3.316406 3.320313-5.921875-.847657c-.257812-.035156-.515625.039063-.714844.210938l-3.183594 2.726562c-.25.210938-.371093.539063-.3125.859375.058594.320313.285157.585938.59375.691406.308594.109376.652344.042969.898438-.175781l2.871094-2.460937 5.960937.851562c.28125.039063.566407-.054687.769531-.253906l3.636719-3.640625c.269531-.257813.347657-.65625.203125-1-.144531-.34375-.488281-.566406-.859375-.554687zm0 0"/><path d="m5.011719 9.265625c-.382813-.011719-.730469.226563-.867188.585937-.132812.359376-.027343.765626.269531 1.011719l3.183594 2.730469c.199219.167969.457032.246094.714844.207031l5.921875-.84375 3.316406 3.316407c.230469.234374.5625.328124.878907.246093.316406-.082031.5625-.332031.644531-.644531.085937-.316406-.007813-.652344-.242188-.878906l-3.636719-3.640625c-.203124-.199219-.488281-.296875-.769531-.253907l-5.960937.851563-2.871094-2.464844c-.160156-.140625-.367188-.21875-.582031-.222656zm0 0"/></g></svg>

<svg xmlns="http://www.w3.org/2000/svg" xmlns:xlink="http://www.w3.org/1999/xlink" width="22px" height="22px" viewBox="0 0 22 22" version="1.1">
<g id="surface1">
     <defs>
  <style id="current-color-scheme" type="text/css">
   .ColorScheme-Text { color:#eeeeee; } .ColorScheme-Highlight { color:#424242; }
  </style>
 </defs>
<path style="fill:currentColor" class="ColorScheme-Text" d="M 3.636719 19.726562 L 3.636719 2.445312 C 3.636719 2.195312 3.433594 1.992188 3.183594 1.992188 C 2.933594 1.992188 2.730469 2.195312 2.730469 2.445312 L 2.730469 19.726562 C 2.730469 19.980469 2.933594 20.183594 3.183594 20.183594 C 3.433594 20.183594 3.636719 19.980469 3.636719 19.726562 Z M 3.636719 19.726562 "/>
     <defs>
  <style id="current-color-scheme" type="text/css">
   .ColorScheme-Text { color:#eeeeee; } .ColorScheme-Highlight { color:#424242; }
  </style>
 </defs>
<path style="fill:currentColor" class="ColorScheme-Text" d="M 2.273438 19.273438 L 19.554688 19.273438 C 19.808594 19.273438 20.011719 19.09375 20.011719 18.871094 L 20.011719 18.765625 C 20.011719 18.542969 19.808594 18.363281 19.554688 18.363281 L 2.273438 18.363281 C 2.023438 18.363281 1.820312 18.542969 1.820312 18.765625 L 1.820312 18.871094 C 1.820312 19.09375 2.023438 19.273438 2.273438 19.273438 Z M 2.273438 19.273438 "/>
     <defs>
  <style id="current-color-scheme" type="text/css">
   .ColorScheme-Text { color:#eeeeee; } .ColorScheme-Highlight { color:#424242; }
  </style>
 </defs>
<path style="fill:currentColor" class="ColorScheme-Text" d="M 18.175781 3.804688 C 17.9375 3.8125 17.714844 3.910156 17.550781 4.078125 L 14.234375 7.398438 L 8.3125 6.550781 C 8.054688 6.515625 7.796875 6.589844 7.597656 6.761719 L 4.414062 9.488281 C 4.164062 9.699219 4.042969 10.027344 4.101562 10.347656 C 4.160156 10.667969 4.386719 10.933594 4.695312 11.039062 C 5.003906 11.148438 5.347656 11.082031 5.59375 10.863281 L 8.464844 8.402344 L 14.425781 9.253906 C 14.707031 9.292969 14.992188 9.199219 15.195312 9 L 18.832031 5.359375 C 19.101562 5.101562 19.179688 4.703125 19.035156 4.359375 C 18.890625 4.015625 18.546875 3.792969 18.175781 3.804688 Z M 18.175781 3.804688 "/>
     <defs>
  <style id="current-color-scheme" type="text/css">
   .ColorScheme-Text { color:#eeeeee; } .ColorScheme-Highlight { color:#424242; }
  </style>
 </defs>
<path style="fill:currentColor" class="ColorScheme-Text" d="M 5.011719 9.265625 C 4.628906 9.253906 4.28125 9.492188 4.144531 9.851562 C 4.011719 10.210938 4.117188 10.617188 4.414062 10.863281 L 7.597656 13.59375 C 7.796875 13.761719 8.054688 13.839844 8.3125 13.800781 L 14.234375 12.957031 L 17.550781 16.273438 C 17.78125 16.507812 18.113281 16.601562 18.429688 16.519531 C 18.746094 16.4375 18.992188 16.1875 19.074219 15.875 C 19.160156 15.558594 19.066406 15.222656 18.832031 14.996094 L 15.195312 11.355469 C 14.992188 11.15625 14.707031 11.058594 14.425781 11.101562 L 8.464844 11.953125 L 5.59375 9.488281 C 5.433594 9.347656 5.226562 9.269531 5.011719 9.265625 Z M 5.011719 9.265625 "/>
</g>
</svg>
